X: 7471
T: Cnoc Na gClarac
R: slide
M: 12/8
K: Dmajor
|:e3 efe d2fe2d|c2A ABA a3a2g|
e3efe d2fe2d|c2A BAG A3A2A:|
|:e2aa2ge2d Bcd|e2aa2g efed2f|
e2aa2ge3efe|d3defg3f2g:|

